storage/app/icons/phosphoricons/bold/gender-intersex-bold.svg

<svg xmlns="http://www.w3.org/2000/svg" fill="currentColor" viewBox="0 0 256 256"><path d="M208 20h-40a12 12 0 0 0 0 24h11l-15.64 15.67A68 68 0 1 0 108 178.92V192H88a12 12 0 0 0 0 24h20v16a12 12 0 0 0 24 0v-16h20a12 12 0 0 0 0-24h-20v-13.08a67.93 67.93 0 0 0 46.9-100.84L196 61v11a12 12 0 0 0 24 0V32a12 12 0 0 0-12-12m-88 136a44 44 0 1 1 44-44 44.05 44.05 0 0 1-44 44"/></svg>

<svg xmlns="http://www.w3.org/2000/svg" viewBox="0 0 256 256" fill="currentColor"><path d="M208,20H168a12,12,0,0,0,0,24h11L163.36,59.67A68,68,0,1,0,108,178.92V192H88a12,12,0,0,0,0,24h20v16a12,12,0,0,0,24,0V216h20a12,12,0,0,0,0-24H132V178.92A67.93,67.93,0,0,0,178.9,78.08L196,61V72a12,12,0,0,0,24,0V32A12,12,0,0,0,208,20ZM120,156a44,44,0,1,1,44-44A44.05,44.05,0,0,1,120,156Z"/></svg>
